src/topics/icons/mesos.svg

<svg height="291" preserveAspectRatio="xMidYMid" viewBox="0 0 256 291" width="256" xmlns="http://www.w3.org/2000/svg"><path d="m190.180109 177.16993v-63.365479l-54.642553 31.735035z" fill="#fff"/><path d="m186.644918 107.621603-54.738179-31.6513618v63.3784278z" fill="#00aede"/><path d="m124.792529 139.346677v-63.378428l-54.7770271 31.651362z" fill="#00aede"/><path d="m121.252358 69.8870039-54.7252296-31.8346459v63.472062z" fill="#00aede"/><path d="m186.644918 183.259144-54.738179-31.623471v63.368467z" fill="#fff"/><path d="m124.792529 215.005136v-63.371455l-54.7770271 31.627455z" fill="#fff"/><path d="m252.113183 145.53849-54.817868-31.73105v63.361494z" fill="#00aede"/><path d="m59.3989728 101.52442v-63.472062l-55.1356265 31.8346459z" fill="#00aede"/><path d="m121.252358 221.095346-54.7252296-31.720093v63.451144z" fill="#fff"/><path d="m59.3989728 252.827393v-63.450148l-55.1356265 31.720094z" fill="#00aede"/><path d="m121.252358 145.53849-54.7252296-31.73105v63.361494z" fill="#fff"/><path d="m190.180109 101.52442v-63.472062l-54.642553 31.8346459z" fill="#00aede"/><path d="m131.908732.31875486v63.35750974l54.738179-31.7200934z" fill="#fff"/><path d="m70.0145058 31.9561712 54.7770272 31.7200934v-63.35750974z" fill="#fff"/><path d="m186.644918 258.91063-54.738179-31.616498v63.347549z" fill="#fff"/><path d="m124.792529 290.643673v-63.351533l-54.7770271 31.620483z" fill="#fff"/><g fill="#00aede"><path d="m255.660327 215.005136v-63.371455l-54.67642 31.627455z"/><path d="m59.3989728 177.16993v-63.46509l-55.1356265 31.834646z"/><path d="m55.871751 183.259144-55.2153152-31.623471v63.368467z"/><path d="m255.660327 139.346677v-63.378428l-54.67642 31.651362z"/><path d="m252.113183 69.8870039-54.817868-31.8346459v63.472062z"/><path d="m252.113183 221.095346-54.817868-31.720093v63.451144z"/></g><path d="m190.180109 252.827393v-63.450148l-54.642553 31.720094z" fill="#fff"/><path d="m55.871751 107.621603-55.2153152-31.6513618v63.3784278z" fill="#00aede"/></svg>

<?xml version="1.0" encoding="UTF-8" standalone="no"?>
<svg width="256px" height="291px" viewBox="0 0 256 291" version="1.1" xmlns="http://www.w3.org/2000/svg" xmlns:xlink="http://www.w3.org/1999/xlink" preserveAspectRatio="xMidYMid">
	<g>
		<path d="M190.180109,177.16993 L190.180109,113.804451 L135.537556,145.539486 L190.180109,177.16993" fill="#FFFFFF"></path>
		<path d="M186.644918,107.621603 L131.906739,75.9702412 L131.906739,139.348669 L186.644918,107.621603" fill="#00AEDE"></path>
		<path d="M124.792529,139.346677 L124.792529,75.968249 L70.0155019,107.619611 L124.792529,139.346677" fill="#00AEDE"></path>
		<path d="M121.252358,69.8870039 L66.5271284,38.052358 L66.5271284,101.52442 L121.252358,69.8870039" fill="#00AEDE"></path>
		<path d="M186.644918,183.259144 L131.906739,151.635673 L131.906739,215.00414 L186.644918,183.259144" fill="#FFFFFF"></path>
		<path d="M124.792529,215.005136 L124.792529,151.633681 L70.0155019,183.261136 L124.792529,215.005136" fill="#FFFFFF"></path>
		<path d="M252.113183,145.53849 L197.295315,113.80744 L197.295315,177.168934 L252.113183,145.53849" fill="#00AEDE"></path>
		<path d="M59.3989728,101.52442 L59.3989728,38.052358 L4.2633463,69.8870039 L59.3989728,101.52442" fill="#00AEDE"></path>
		<path d="M121.252358,221.095346 L66.5271284,189.375253 L66.5271284,252.826397 L121.252358,221.095346" fill="#FFFFFF"></path>
		<path d="M59.3989728,252.827393 L59.3989728,189.377245 L4.2633463,221.097339 L59.3989728,252.827393" fill="#00AEDE"></path>
		<path d="M121.252358,145.53849 L66.5271284,113.80744 L66.5271284,177.168934 L121.252358,145.53849" fill="#FFFFFF"></path>
		<path d="M190.180109,101.52442 L190.180109,38.052358 L135.537556,69.8870039 L190.180109,101.52442" fill="#00AEDE"></path>
		<path d="M131.908732,0.318754864 L131.908732,63.6762646 L186.646911,31.9561712 L131.908732,0.318754864" fill="#FFFFFF"></path>
		<path d="M70.0145058,31.9561712 L124.791533,63.6762646 L124.791533,0.318754864 L70.0145058,31.9561712" fill="#FFFFFF"></path>
		<path d="M186.644918,258.91063 L131.906739,227.294132 L131.906739,290.641681 L186.644918,258.91063" fill="#FFFFFF"></path>
		<path d="M124.792529,290.643673 L124.792529,227.29214 L70.0155019,258.912623 L124.792529,290.643673" fill="#FFFFFF"></path>
		<path d="M255.660327,215.005136 L255.660327,151.633681 L200.983907,183.261136 L255.660327,215.005136" fill="#00AEDE"></path>
		<path d="M59.3989728,177.16993 L59.3989728,113.70484 L4.2633463,145.539486 L59.3989728,177.16993" fill="#00AEDE"></path>
		<path d="M55.871751,183.259144 L0.656435798,151.635673 L0.656435798,215.00414 L55.871751,183.259144" fill="#00AEDE"></path>
		<path d="M255.660327,139.346677 L255.660327,75.968249 L200.983907,107.619611 L255.660327,139.346677" fill="#00AEDE"></path>
		<path d="M252.113183,69.8870039 L197.295315,38.052358 L197.295315,101.52442 L252.113183,69.8870039" fill="#00AEDE"></path>
		<path d="M252.113183,221.095346 L197.295315,189.375253 L197.295315,252.826397 L252.113183,221.095346" fill="#00AEDE"></path>
		<path d="M190.180109,252.827393 L190.180109,189.377245 L135.537556,221.097339 L190.180109,252.827393" fill="#FFFFFF"></path>
		<path d="M55.871751,107.621603 L0.656435798,75.9702412 L0.656435798,139.348669 L55.871751,107.621603" fill="#00AEDE"></path>
	</g>
</svg>
